X: 41861
T: Virginia, The
R: reel
M: 4/4
K: Dmajor
dbba b2ba|bad'b afef|df f/g/f affg|afd'b afef|
dbba b2ba|bad'b abde|f2fe defe|d'baf bee2:|
|:defe d3a|bafa d'afa|defe defg|afbf afeg|
fgfe dedb|af f/g/f abde|fgfe defe|d'baf bee2:|

